setup-data/footprints/images/Ic-package-Max247.svg

<?xml version="1.0" encoding="UTF-8" standalone="no"?>
<svg
   xmlns:dc="http://purl.org/dc/elements/1.1/"
   xmlns:cc="http://creativecommons.org/ns#"
   xmlns:rdf="http://www.w3.org/1999/02/22-rdf-syntax-ns#"
   xmlns:svg="http://www.w3.org/2000/svg"
   xmlns="http://www.w3.org/2000/svg"
   xmlns:sodipodi="http://sodipodi.sourceforge.net/DTD/sodipodi-0.dtd"
   xmlns:inkscape="http://www.inkscape.org/namespaces/inkscape"
   version="1.0"
   inkscape:output_extension="org.inkscape.output.svg.inkscape"
   sodipodi:docname="Ic-package-Max247.svg"
   inkscape:version="1.0beta2 (2b71d25, 2019-12-03)"
   sodipodi:version="0.32"
   id="svg4244"
   height="203.71324"
   width="210.5735">
  <defs
     id="defs4246" />
  <sodipodi:namedview
     inkscape:window-maximized="0"
     fit-margin-bottom="20"
     fit-margin-right="20"
     fit-margin-left="20"
     lock-margins="true"
     fit-margin-top="20"
     showgrid="false"
     inkscape:document-rotation="0"
     height="100px"
     width="100px"
     inkscape:window-y="23"
     inkscape:window-x="1440"
     inkscape:window-height="1035"
     inkscape:window-width="1920"
     inkscape:current-layer="layer1"
     inkscape:document-units="px"
     inkscape:cy="172.38978"
     inkscape:cx="-36.561502"
     inkscape:zoom="1.4"
     inkscape:pageshadow="2"
     inkscape:pageopacity="0.0"
     objecttolerance="10"
     guidetolerance="10"
     gridtolerance="10000"
     borderopacity="1.0"
     bordercolor="#666666"
     pagecolor="#ffffff"
     id="base" />
  <metadata
     id="metadata4249">
    <rdf:RDF>
      <cc:Work
         rdf:about="">
        <dc:format>image/svg+xml</dc:format>
        <dc:type
           rdf:resource="http://purl.org/dc/dcmitype/StillImage" />
        <dc:title></dc:title>
      </cc:Work>
    </rdf:RDF>
  </metadata>
  <g
     transform="translate(53.795641,52.389779)"
     id="layer1"
     inkscape:groupmode="layer"
     inkscape:label="Layer 1">
    <g
       transform="matrix(-2,0,0,2,1989.0888,54.522437)"
       id="g4213">
      <path
         inkscape:connector-curvature="0"
         style="fill:none;fill-rule:evenodd;stroke:#000000;stroke-width:1px;stroke-linecap:butt;stroke-linejoin:miter;stroke-opacity:1"
         d="m 958.98197,3.6660117 24.2437,-20.4555877 -20.4556,-17.172593 c -0.8118,0.681575 -2.9243,1.832739 -3.1396,1.702375 -0.0997,-0.06041 -2.2335,-1.565983 -3.3646,-2.517092 -1.1578,-0.973478 -2.8005,-2.578332 -2.9202,-2.796326 -0.5519,-1.004955 1.3922,-1.559655 2.1008,-2.197334 l -3.0305,-3.030458 -24.7487,17.930208 3.0305,2.525381 c 1.1036,-0.82562 2.4536,-1.734743 2.505,-1.689495 0.1078,0.09492 1.5946,1.279831 3.3475,2.892765 2.5238,2.322123 4.8237,4.178018 4.7576,4.277799 -0.1006,0.151758 -1.5635,1.656384 -2.5289,2.347613 z"
         id="path4155"
         sodipodi:nodetypes="cccsssccccssscc" />
      <path
         inkscape:connector-curvature="0"
         style="fill:none;fill-rule:evenodd;stroke:#000000;stroke-width:1px;stroke-linecap:butt;stroke-linejoin:miter;stroke-opacity:1"
         d="m 927.91977,-25.123335 -1.2627,6.565991 0.1263,3.788073 31.5673,29.673229 -0.2526,-4.04061 0.8839,-7.5761443 v 0.12627"
         id="path4157" />
      <path
         inkscape:connector-curvature="0"
         style="fill:none;fill-rule:evenodd;stroke:#000000;stroke-width:1px;stroke-linecap:butt;stroke-linejoin:miter;stroke-opacity:1"
         d="m 958.09807,11.494694 -31.3147,-29.546961"
         id="path4159" />
      <path
         inkscape:connector-curvature="0"
         style="fill:none;fill-rule:evenodd;stroke:#000000;stroke-width:1px;stroke-linecap:butt;stroke-linejoin:miter;stroke-opacity:1"
         d="m 938.52637,-14.390464 -1.0101,6.1871837 v 0 0"
         id="path4161" />
      <path
         inkscape:connector-curvature="0"
         style="fill:none;fill-rule:evenodd;stroke:#000000;stroke-width:1px;stroke-linecap:butt;stroke-linejoin:miter;stroke-opacity:1"
         d="m 930.82397,-22.092877 -1.0101,6.313453 v 0 0.126269"
         id="path4163" />
      <path
         inkscape:connector-curvature="0"
         style="fill:none;fill-rule:evenodd;stroke:#000000;stroke-width:1px;stroke-linecap:butt;stroke-linejoin:miter;stroke-opacity:1"
         d="m 961.63367,5.6863165 3.0304,-2.5253818 8.2707,8.0180863 -0.8839,1.073287 22.9178,21.592011 -1.7678,2.020306 -23.3597,-22.349626 -1e-4,-0.12627 z"
         id="path4165"
         sodipodi:nodetypes="ccccccccc" />
      <path
         inkscape:connector-curvature="0"
         style="fill:none;fill-rule:evenodd;stroke:#000000;stroke-width:1px;stroke-linecap:butt;stroke-linejoin:miter;stroke-opacity:1"
         d="m 961.63357,5.9388546 0.1264,2.6516505 7.7023,7.0710669 v 0 l 0.1263,0.12627 23.1073,21.465742 v -1.894036"
         id="path4167"
         sodipodi:nodetypes="ccccccc" />
      <path
         inkscape:connector-curvature="0"
         style="fill:none;fill-rule:evenodd;stroke:#000000;stroke-width:1px;stroke-linecap:butt;stroke-linejoin:miter;stroke-opacity:1"
         d="m 992.82207,37.821795 2.2097,-1.957171 V 33.71805"
         id="path4169" />
      <path
         inkscape:connector-curvature="0"
         style="fill:none;fill-rule:evenodd;stroke:#000000;stroke-width:1px;stroke-linecap:butt;stroke-linejoin:miter;stroke-opacity:1"
         d="m 958.35067,14.903958 4.5457,-4.103745 h -0.0632"
         id="path4171" />
      <g
         id="g4173"
         transform="translate(-464.95422,-5.5874053)">
        <path
           inkscape:connector-curvature="0"
           sodipodi:nodetypes="ccccccccc"
           id="path4175"
           d="m 1441.3308,-0.83371708 3.2676,-3.13506232 6.392,6.2656377 2.0663,2.1114494 22.6499,21.8598673 -1.7678,2.020306 -23.3597,-22.3496255 -1.0816,0.8278641 z"
           style="fill:none;fill-rule:evenodd;stroke:#000000;stroke-width:1px;stroke-linecap:butt;stroke-linejoin:miter;stroke-opacity:1" />
        <path
           inkscape:connector-curvature="0"
           id="path4177"
           d="m 1441.2938,-0.69212903 0.1633,2.17458383 6.4703,5.9716295 1.4286,1.5178571 0.9705,-0.7602427 23.1073,21.4657413 v -1.894036"
           style="fill:none;fill-rule:evenodd;stroke:#000000;stroke-width:1px;stroke-linecap:butt;stroke-linejoin:miter;stroke-opacity:1"
           sodipodi:nodetypes="ccccccc" />
        <path
           inkscape:connector-curvature="0"
           id="path4179"
           d="m 1473.56,30.245651 2.2097,-1.957171 v -2.146574"
           style="fill:none;fill-rule:evenodd;stroke:#000000;stroke-width:1px;stroke-linecap:butt;stroke-linejoin:miter;stroke-opacity:1" />
      </g>
      <g
         id="g4181"
         transform="translate(-410.43752,16.888488)">
        <path
           inkscape:connector-curvature="0"
           sodipodi:nodetypes="ccccccccc"
           id="path4183"
           d="m 1383.3407,-20.135708 -4.4194,3.661803 8.0812,7.7024137 1.3258,-1.0101528 22.6653,21.9708181 2.3991,-2.020305 -22.9809,-21.276338 1.0102,-1.325826 z"
           style="fill:none;fill-rule:evenodd;stroke:#000000;stroke-width:1px;stroke-linecap:butt;stroke-linejoin:miter;stroke-opacity:1" />
        <path
           inkscape:connector-curvature="0"
           sodipodi:nodetypes="ccccccc"
           id="path4185"
           d="m 1378.795,-16.600174 -0.063,3.282996 8.0812,7.0079332 1.3889,-0.8207489 22.7916,22.0339517 2.336,-2.209708 0.1263,-2.335978"
           style="fill:none;fill-rule:evenodd;stroke:#000000;stroke-width:1px;stroke-linecap:butt;stroke-linejoin:miter;stroke-opacity:1" />
        <path
           inkscape:connector-curvature="0"
           id="path4187"
           d="m 1410.8042,12.126039 0.1263,2.146574 v 0 l -0.063,-0.06313"
           style="fill:none;fill-rule:evenodd;stroke:#000000;stroke-width:1px;stroke-linecap:butt;stroke-linejoin:miter;stroke-opacity:1" />
      </g>
      <path
         inkscape:connector-curvature="0"
         style="fill:none;fill-rule:evenodd;stroke:#000000;stroke-width:1px;stroke-linecap:butt;stroke-linejoin:miter;stroke-opacity:1"
         d="m 983.09937,-16.789577 1.1364,5.682108 0.2526,3.0304577 -0.7576,0.883884 0.8036,-0.535714 -1.444,0.934326"
         id="path4189"
         sodipodi:nodetypes="cccccc" />
      <path
         inkscape:connector-curvature="0"
         style="fill:none;fill-rule:evenodd;stroke:#000000;stroke-width:1px;stroke-linecap:butt;stroke-linejoin:miter;stroke-opacity:1"
         d="m 967.30287,5.9639638 1.875,-1.4285714"
         id="path4191" />
      <path
         inkscape:connector-curvature="0"
         style="fill:none;fill-rule:evenodd;stroke:#000000;stroke-width:1px;stroke-linecap:butt;stroke-linejoin:miter;stroke-opacity:1"
         d="m 978.46357,-2.7860363 -2.5893,1.87499997"
         id="path4193"
         sodipodi:nodetypes="cc" />
      <path
         inkscape:connector-curvature="0"
         style="fill:none;fill-rule:evenodd;stroke:#000000;stroke-width:1px;stroke-linecap:butt;stroke-linejoin:miter;stroke-opacity:1"
         d="m 984.62917,0.99253567 -0.1786,2.14285803"
         id="path4195" />
      <path
         inkscape:connector-curvature="0"
         style="fill:none;fill-rule:evenodd;stroke:#000000;stroke-width:1px;stroke-linecap:butt;stroke-linejoin:miter;stroke-opacity:1"
         d="M 976.50417,8.3139647 V 10.099679"
         id="path4197" />
      <path
         inkscape:connector-curvature="0"
         style="fill:none;fill-rule:evenodd;stroke:#000000;stroke-width:1px;stroke-linecap:butt;stroke-linejoin:miter;stroke-opacity:1"
         d="M 981.05767,4.474679 V 6.4389646"
         id="path4199"
         sodipodi:nodetypes="cc" />
      <path
         inkscape:connector-curvature="0"
         style="fill:none;fill-rule:evenodd;stroke:#000000;stroke-width:1px;stroke-linecap:butt;stroke-linejoin:miter;stroke-opacity:1"
         d="m 930.16487,-15.436034 2.1429,-1.339286 5.8035,5.625"
         id="path4201"
         sodipodi:nodetypes="ccc" />
      <path
         inkscape:connector-curvature="0"
         style="fill:none;fill-rule:evenodd;stroke:#000000;stroke-width:1px;stroke-linecap:butt;stroke-linejoin:miter;stroke-opacity:1"
         d="m 933.20057,-23.918177 -0.9821,6.875 v 0"
         id="path4203" />
      <path
         inkscape:connector-curvature="0"
         style="fill:none;fill-rule:evenodd;stroke:#000000;stroke-width:1px;stroke-linecap:butt;stroke-linejoin:miter;stroke-opacity:1"
         d="m 955.43267,-39.632463 -0.4464,3.571429 v 0"
         id="path4205" />
      <ellipse
         ry="1.8940361"
         rx="2.7779195"
         cy="-31.910297"
         cx="1047.0231"
         style="opacity:1;fill:none;fill-opacity:1;fill-rule:nonzero;stroke:#000000;stroke-width:1;stroke-miterlimit:4;stroke-dasharray:none;stroke-opacity:1"
         id="path4207"
         transform="translate(-109.31212,4.9569426)" />
      <ellipse
         ry="1.8940361"
         rx="2.7779195"
         cy="-31.910297"
         cx="1047.0231"
         style="opacity:1;fill:none;fill-opacity:1;fill-rule:nonzero;stroke:#000000;stroke-width:1;stroke-miterlimit:4;stroke-dasharray:none;stroke-opacity:1"
         id="path4209"
         transform="translate(-80.017655,22.003266)" />
      <ellipse
         ry="1.8940361"
         rx="2.7779195"
         cy="-31.910297"
         cx="1047.0231"
         style="opacity:1;fill:none;fill-opacity:1;fill-rule:nonzero;stroke:#000000;stroke-width:1;stroke-miterlimit:4;stroke-dasharray:none;stroke-opacity:1"
         id="path4211"
         transform="translate(-97.947865,-3.5030853)" />
    </g>
  </g>
</svg>

<?xml version="1.0" encoding="UTF-8" standalone="no"?>
<!-- Created with Inkscape (http://www.inkscape.org/) -->
<svg
   xmlns:dc="http://purl.org/dc/elements/1.1/"
   xmlns:cc="http://web.resource.org/cc/"
   xmlns:rdf="http://www.w3.org/1999/02/22-rdf-syntax-ns#"
   xmlns:svg="http://www.w3.org/2000/svg"
   xmlns="http://www.w3.org/2000/svg"
   xmlns:sodipodi="http://sodipodi.sourceforge.net/DTD/sodipodi-0.dtd"
   xmlns:inkscape="http://www.inkscape.org/namespaces/inkscape"
   width="100"
   height="100"
   id="svg4244"
   sodipodi:version="0.32"
   inkscape:version="0.45.1"
   sodipodi:docbase="/home/zymos/chip/package/homemade/next"
   sodipodi:docname="ic-package-Max247.svg"
   inkscape:output_extension="org.inkscape.output.svg.inkscape"
   version="1.0">
  <defs
     id="defs4246" />
  <sodipodi:namedview
     id="base"
     pagecolor="#ffffff"
     bordercolor="#666666"
     borderopacity="1.0"
     gridtolerance="10000"
     guidetolerance="10"
     objecttolerance="10"
     inkscape:pageopacity="0.0"
     inkscape:pageshadow="2"
     inkscape:zoom="1.4"
     inkscape:cx="79.642857"
     inkscape:cy="120"
     inkscape:document-units="px"
     inkscape:current-layer="layer1"
     inkscape:window-width="697"
     inkscape:window-height="581"
     inkscape:window-x="371"
     inkscape:window-y="259"
     width="100px"
     height="100px" />
  <metadata
     id="metadata4249">
    <rdf:RDF>
      <cc:Work
         rdf:about="">
        <dc:format>image/svg+xml</dc:format>
        <dc:type
           rdf:resource="http://purl.org/dc/dcmitype/StillImage" />
      </cc:Work>
    </rdf:RDF>
  </metadata>
  <g
     inkscape:label="Layer 1"
     inkscape:groupmode="layer"
     id="layer1">
    <g
       id="g4213"
       transform="translate(-917.3077,51.994641)">
      <path
         sodipodi:nodetypes="cccsssccccssscc"
         id="path4155"
         d="M 958.98197,3.6660117 L 983.22567,-16.789576 L 962.77007,-33.962169 C 961.95827,-33.280594 959.84577,-32.12943 959.63047,-32.259794 C 959.53077,-32.320204 957.39697,-33.825777 956.26587,-34.776886 C 955.10807,-35.750364 953.46537,-37.355218 953.34567,-37.573212 C 952.79377,-38.578167 954.73787,-39.132867 955.44647,-39.770546 L 952.41597,-42.801004 L 927.66727,-24.870796 L 930.69777,-22.345415 C 931.80137,-23.171035 933.15137,-24.080158 933.20277,-24.03491 C 933.31057,-23.939995 934.79737,-22.755079 936.55027,-21.142145 C 939.07407,-18.820022 941.37397,-16.964127 941.30787,-16.864346 C 941.20727,-16.712588 939.74437,-15.207962 938.77897,-14.516733 L 958.98197,3.6660117 z "
         style="fill:none;fill-rule:evenodd;stroke:#000000;stroke-width:1px;stroke-linecap:butt;stroke-linejoin:miter;stroke-opacity:1" />
      <path
         id="path4157"
         d="M 927.91977,-25.123335 L 926.65707,-18.557344 L 926.78337,-14.769271 L 958.35067,14.903958 L 958.09807,10.863348 L 958.98197,3.2872037 L 958.98197,3.4134737"
         style="fill:none;fill-rule:evenodd;stroke:#000000;stroke-width:1px;stroke-linecap:butt;stroke-linejoin:miter;stroke-opacity:1" />
      <path
         id="path4159"
         d="M 958.09807,11.494694 L 926.78337,-18.052267"
         style="fill:none;fill-rule:evenodd;stroke:#000000;stroke-width:1px;stroke-linecap:butt;stroke-linejoin:miter;stroke-opacity:1" />
      <path
         id="path4161"
         d="M 938.52637,-14.390464 L 937.51627,-8.2032803 L 937.51627,-8.2032803 L 937.51627,-8.2032803"
         style="fill:none;fill-rule:evenodd;stroke:#000000;stroke-width:1px;stroke-linecap:butt;stroke-linejoin:miter;stroke-opacity:1" />
      <path
         id="path4163"
         d="M 930.82397,-22.092877 L 929.81387,-15.779424 L 929.81387,-15.779424 L 929.81387,-15.653155"
         style="fill:none;fill-rule:evenodd;stroke:#000000;stroke-width:1px;stroke-linecap:butt;stroke-linejoin:miter;stroke-opacity:1" />
      <path
         sodipodi:nodetypes="ccccccccc"
         id="path4165"
         d="M 961.63367,5.6863165 L 964.66407,3.1609347 L 972.93477,11.179021 L 972.05087,12.252308 L 994.96867,33.844319 L 993.20087,35.864625 L 969.84117,13.514999 L 969.84107,13.388729 L 961.63367,5.6863165 z "
         style="fill:none;fill-rule:evenodd;stroke:#000000;stroke-width:1px;stroke-linecap:butt;stroke-linejoin:miter;stroke-opacity:1" />
      <path
         sodipodi:nodetypes="ccccccc"
         id="path4167"
         d="M 961.63357,5.9388546 L 961.75997,8.5905051 L 969.46227,15.661572 L 969.46227,15.661572 L 969.58857,15.787842 L 992.69587,37.253584 L 992.69587,35.359548"
         style="fill:none;fill-rule:evenodd;stroke:#000000;stroke-width:1px;stroke-linecap:butt;stroke-linejoin:miter;stroke-opacity:1" />
      <path
         id="path4169"
         d="M 992.82207,37.821795 L 995.03177,35.864624 L 995.03177,33.71805"
         style="fill:none;fill-rule:evenodd;stroke:#000000;stroke-width:1px;stroke-linecap:butt;stroke-linejoin:miter;stroke-opacity:1" />
      <path
         id="path4171"
         d="M 958.35067,14.903958 L 962.89637,10.800213 L 962.83317,10.800213"
         style="fill:none;fill-rule:evenodd;stroke:#000000;stroke-width:1px;stroke-linecap:butt;stroke-linejoin:miter;stroke-opacity:1" />
      <g
         transform="translate(-464.95422,-5.5874053)"
         id="g4173">
        <path
           style="fill:none;fill-rule:evenodd;stroke:#000000;stroke-width:1px;stroke-linecap:butt;stroke-linejoin:miter;stroke-opacity:1"
           d="M 1441.3308,-0.83371708 L 1444.5984,-3.9687794 L 1450.9904,2.2968583 L 1453.0567,4.4083077 L 1475.7066,26.268175 L 1473.9388,28.288481 L 1450.5791,5.9388555 L 1449.4975,6.7667196 L 1441.3308,-0.83371708 z "
           id="path4175"
           sodipodi:nodetypes="ccccccccc" />
        <path
           sodipodi:nodetypes="ccccccc"
           style="fill:none;fill-rule:evenodd;stroke:#000000;stroke-width:1px;stroke-linecap:butt;stroke-linejoin:miter;stroke-opacity:1"
           d="M 1441.2938,-0.69212903 L 1441.4571,1.4824548 L 1447.9274,7.4540843 L 1449.356,8.9719414 L 1450.3265,8.2116987 L 1473.4338,29.67744 L 1473.4338,27.783404"
           id="path4177" />
        <path
           style="fill:none;fill-rule:evenodd;stroke:#000000;stroke-width:1px;stroke-linecap:butt;stroke-linejoin:miter;stroke-opacity:1"
           d="M 1473.56,30.245651 L 1475.7697,28.28848 L 1475.7697,26.141906"
           id="path4179" />
      </g>
      <g
         transform="translate(-410.43752,16.888488)"
         id="g4181">
        <path
           style="fill:none;fill-rule:evenodd;stroke:#000000;stroke-width:1px;stroke-linecap:butt;stroke-linejoin:miter;stroke-opacity:1"
           d="M 1383.3407,-20.135708 L 1378.9213,-16.473905 L 1387.0025,-8.7714913 L 1388.3283,-9.7816441 L 1410.9936,12.189174 L 1413.3927,10.168869 L 1390.4118,-11.107469 L 1391.422,-12.433295 L 1383.3407,-20.135708 z "
           id="path4183"
           sodipodi:nodetypes="ccccccccc" />
        <path
           style="fill:none;fill-rule:evenodd;stroke:#000000;stroke-width:1px;stroke-linecap:butt;stroke-linejoin:miter;stroke-opacity:1"
           d="M 1378.795,-16.600174 L 1378.7319,-13.317178 L 1386.8131,-6.3092448 L 1388.202,-7.1299937 L 1410.9936,14.903958 L 1413.3296,12.69425 L 1413.4559,10.358272"
           id="path4185"
           sodipodi:nodetypes="ccccccc" />
        <path
           style="fill:none;fill-rule:evenodd;stroke:#000000;stroke-width:1px;stroke-linecap:butt;stroke-linejoin:miter;stroke-opacity:1"
           d="M 1410.8042,12.126039 L 1410.9305,14.272613 L 1410.9305,14.272613 L 1410.8674,14.209479"
           id="path4187" />
      </g>
      <path
         sodipodi:nodetypes="cccccc"
         id="path4189"
         d="M 983.09937,-16.789577 L 984.23577,-11.107469 L 984.48837,-8.0770113 L 983.73077,-7.1931273 L 984.53437,-7.7288413 L 983.09037,-6.7945153"
         style="fill:none;fill-rule:evenodd;stroke:#000000;stroke-width:1px;stroke-linecap:butt;stroke-linejoin:miter;stroke-opacity:1" />
      <path
         id="path4191"
         d="M 967.30287,5.9639638 L 969.17787,4.5353924"
         style="fill:none;fill-rule:evenodd;stroke:#000000;stroke-width:1px;stroke-linecap:butt;stroke-linejoin:miter;stroke-opacity:1" />
      <path
         sodipodi:nodetypes="cc"
         id="path4193"
         d="M 978.46357,-2.7860363 L 975.87427,-0.91103633"
         style="fill:none;fill-rule:evenodd;stroke:#000000;stroke-width:1px;stroke-linecap:butt;stroke-linejoin:miter;stroke-opacity:1" />
      <path
         id="path4195"
         d="M 984.62917,0.99253567 L 984.45057,3.1353937"
         style="fill:none;fill-rule:evenodd;stroke:#000000;stroke-width:1px;stroke-linecap:butt;stroke-linejoin:miter;stroke-opacity:1" />
      <path
         id="path4197"
         d="M 976.50417,8.3139647 L 976.50417,10.099679"
         style="fill:none;fill-rule:evenodd;stroke:#000000;stroke-width:1px;stroke-linecap:butt;stroke-linejoin:miter;stroke-opacity:1" />
      <path
         sodipodi:nodetypes="cc"
         id="path4199"
         d="M 981.05767,4.474679 L 981.05767,6.4389646"
         style="fill:none;fill-rule:evenodd;stroke:#000000;stroke-width:1px;stroke-linecap:butt;stroke-linejoin:miter;stroke-opacity:1" />
      <path
         sodipodi:nodetypes="ccc"
         id="path4201"
         d="M 930.16487,-15.436034 L 932.30777,-16.77532 L 938.11127,-11.15032"
         style="fill:none;fill-rule:evenodd;stroke:#000000;stroke-width:1px;stroke-linecap:butt;stroke-linejoin:miter;stroke-opacity:1" />
      <path
         id="path4203"
         d="M 933.20057,-23.918177 L 932.21847,-17.043177 L 932.21847,-17.043177"
         style="fill:none;fill-rule:evenodd;stroke:#000000;stroke-width:1px;stroke-linecap:butt;stroke-linejoin:miter;stroke-opacity:1" />
      <path
         id="path4205"
         d="M 955.43267,-39.632463 L 954.98627,-36.061034 L 954.98627,-36.061034"
         style="fill:none;fill-rule:evenodd;stroke:#000000;stroke-width:1px;stroke-linecap:butt;stroke-linejoin:miter;stroke-opacity:1" />
      <path
         transform="translate(-109.31212,4.9569426)"
         d="M 1049.801 -31.910297 A 2.7779195 1.8940361 0 1 1  1044.2452,-31.910297 A 2.7779195 1.8940361 0 1 1  1049.801 -31.910297 z"
         sodipodi:ry="1.8940361"
         sodipodi:rx="2.7779195"
         sodipodi:cy="-31.910297"
         sodipodi:cx="1047.0231"
         id="path4207"
         style="opacity:1;fill:none;fill-opacity:1;fill-rule:nonzero;stroke:#000000;stroke-width:1;stroke-miterlimit:4;stroke-dasharray:none;stroke-opacity:1"
         sodipodi:type="arc" />
      <path
         transform="translate(-80.017655,22.003266)"
         d="M 1049.801 -31.910297 A 2.7779195 1.8940361 0 1 1  1044.2452,-31.910297 A 2.7779195 1.8940361 0 1 1  1049.801 -31.910297 z"
         sodipodi:ry="1.8940361"
         sodipodi:rx="2.7779195"
         sodipodi:cy="-31.910297"
         sodipodi:cx="1047.0231"
         id="path4209"
         style="opacity:1;fill:none;fill-opacity:1;fill-rule:nonzero;stroke:#000000;stroke-width:1;stroke-miterlimit:4;stroke-dasharray:none;stroke-opacity:1"
         sodipodi:type="arc" />
      <path
         transform="translate(-97.947865,-3.5030853)"
         d="M 1049.801 -31.910297 A 2.7779195 1.8940361 0 1 1  1044.2452,-31.910297 A 2.7779195 1.8940361 0 1 1  1049.801 -31.910297 z"
         sodipodi:ry="1.8940361"
         sodipodi:rx="2.7779195"
         sodipodi:cy="-31.910297"
         sodipodi:cx="1047.0231"
         id="path4211"
         style="opacity:1;fill:none;fill-opacity:1;fill-rule:nonzero;stroke:#000000;stroke-width:1;stroke-miterlimit:4;stroke-dasharray:none;stroke-opacity:1"
         sodipodi:type="arc" />
    </g>
  </g>
</svg>
